blockchains/ethereum/assets/0xb933f9220459bba16cd911a95b2dab41db598e97/logo.svg

<svg fill="none" height="24" viewBox="0 0 24 24" width="24" xmlns="http://www.w3.org/2000/svg" xmlns:xlink="http://www.w3.org/1999/xlink"><clipPath id="a"><path d="m0 0h24v24h-24z"/></clipPath><g clip-path="url(#a)"><circle cx="12" cy="12" fill="#050816" r="12"/><path d="m15.6814 5.18402-6.02731.01129h-.12472l-.48072.533.68254.03162c.01588 0 .01588 0 .08164.00677l.07028.00678c2.59189.24617 4.07939 1.70738 4.07939 4.00648 0 1.74354-1.4331 2.93144-2.7755 3.46224l-.3152.1242 3.4263 5.4474h1.6214l3.9524-6.8206zm-1.0658 13.06968-2.9071-4.6208c.8164-.3817 2.8209-1.5516 2.8209-3.85067 0-1.88581-.873-3.29283-2.4762-4.02908l3.313-.00678 3.8549 6.25813-3.6236 6.2492h-.9842zm-5.71209-6.2492c1.36509 0 2.83219-.6956 2.83219-2.22454 0-1.40476-.9161-2.24263-2.45123-2.24263h-2.59188l-2.51251 4.34527-.05215.1513 3.93203 6.7821h3.82544l-3.95242-6.8092h.9728zm-.52155 6.2492-3.62364-6.2537 2.26081-3.90032h2.2676c1.21767 0 1.88897.59623 1.88897 1.68028 0 1.14274-1.17693 1.66224-2.26992 1.66224h-1.95015l3.95247 6.8092h-2.52388z" fill="#faa21b"/></g></svg>

<svg width="24" height="24" viewBox="0 0 24 24" fill="none" xmlns="http://www.w3.org/2000/svg">
<g clip-path="url(#clip0_1506_220)">
<circle cx="12" cy="12" r="12" fill="#050816"/>
<path d="M15.6814 5.18402L9.65409 5.19531H9.52937L9.04865 5.72831L9.73119 5.75993C9.74707 5.75993 9.74707 5.75993 9.81283 5.7667L9.88311 5.77348C12.475 6.01965 13.9625 7.48086 13.9625 9.77996C13.9625 11.5235 12.5294 12.7114 11.187 13.2422L10.8718 13.3664L14.2981 18.8138H15.9195L19.8719 11.9932L15.6814 5.18402ZM14.6156 18.2537L11.7085 13.6329C12.5249 13.2512 14.5294 12.0813 14.5294 9.78223C14.5294 7.89642 13.6564 6.4894 12.0532 5.75315L15.3662 5.74637L19.2211 12.0045L15.5975 18.2537H14.6133H14.6156ZM8.90351 12.0045C10.2686 12.0045 11.7357 11.3089 11.7357 9.77996C11.7357 8.3752 10.8196 7.53733 9.28447 7.53733H6.69259L4.18008 11.8826L4.12793 12.0339L8.05996 18.816H11.8854L7.93298 12.0068H8.90578L8.90351 12.0045ZM8.38196 18.2537L4.75832 12L7.01913 8.09968H9.28673C10.5044 8.09968 11.1757 8.69591 11.1757 9.77996C11.1757 10.9227 9.99877 11.4422 8.90578 11.4422H6.95563L10.9081 18.2514H8.38422L8.38196 18.2537Z" fill="#FAA21B"/>
</g>
<defs>
<clipPath id="clip0_1506_220">
<rect width="24" height="24" fill="white"/>
</clipPath>
</defs>
</svg>
